X:1
T:Title
%%score 1 ( 2 3 ) { ( 4 6 ) | 5 }
L:1/8
Q:1/4=85
M:4/4
K:Bb
V:1 treble nm="Drawbar Organ, Soprano"
V:2 treble nm="Grand Piano, Staff-1"
V:3 treble 
V:4 bass nm="Choir Pad, Bass"
V:6 bass 
V:5 bass 
V:1
 D2 DF- FFGF | G A2 G ABcB- | BA G2- G .F3 | D2 DF- FFGF | G A2 G ABcd- | dc B2- B .B3 | %6
w: By~John~Henry~Hopkins,~Jr.~(1820\-1891) * * * * * *||||||
 dcBA- AGcB | A G2 F BAGF- | F=E F6 | z8 | z8 | z8 | z8 |] %13
w: |||||||
V:2
 [B,D]2 [B,D][CF]- [CF][CF][EG][DF] | [EG] [^FA]2 G [FA][GB][Ac][GB]- | %2
 [GB][FA] [=EG]2- [EG] .[CF]3 | [B,D]2 [B,D][CF]- [CF][CF][EG][DF] | %4
 [EG] [^FA]2 [DG] [=FA][FB][Ec][Dd]- | [Dd][Ac] B2- [E-B]/E/ .[DB]3 | %6
 [Bd][Ac][GB][EA]- [EA][EG][Ec][EB] | z8 | z2 F6 | [B,D][B,D][B,D]C- C[CF][EG][DF] | %10
 [EG] [^FA]2 G [DB][=Fc][Fd][Ge]- | [Ge][Fd]/>[Fd]/ [Fc]2- [Fc] [DB]3- | [DB]4 z4 |] %13
V:3
 x8 | x8 | x8 | x8 | x8 | z2 G2 z4 | x8 | [EA] [DG]2 [DF] [GB][FA][EG][CF]- | [CF][C=E] z2 D .C3 | %9
 x8 | x8 | x8 | x8 |] %13
V:4
 B,2 B,A,- A,A,B,B, | B,[K:treble] D2 B, DDDB,- | B,C C2- C[K:bass] .A,3 | B,2 B,A,- A,A,B,B, | %4
 B, C2 B, CB,A,B,- | B,B, B,2- B,/ z/ .F,3 | B,[K:treble]CDC- C/ z/ C[K:bass] A,B, | %7
 C B,2 B, G,A,B,C- | CC z2 B, .A,3 | B,B,B,A,- A,A,B,B, | B, D2 B, B,A,B,B,- | %11
 B,B,/>B,/ A,2- A, B,3- | B,4 z4 |] %13
V:5
 G,2 G,F,- F,F,E,B,, | E, D,2 G, D,D,^F,,G,,- | G,,A,, C,2- C, .F,3 | z2 G,F,- F,F,E,B,, | %4
 E, D,2 G, F,D,C,B,,- | B,,D, E,2 G, .B,,3 | G,A, .B,2 z2 F,G, | .A,2 z2 E,F,G,A,- | A, z z2 z4 | %9
 z2 .G,2 z F,E,B,, | E, D,2 G, G,F, z E,- | E,2 F,2- F, B,,3- | B,,4 z4 |] %13
V:6
 x8 | x[K:treble] x7 | x5[K:bass] x3 | x8 | x8 | x8 | x[K:treble] x5[K:bass] x2 | x8 | z2 F,6 | %9
 x8 | x8 | x8 | x8 |] %13

